X:1
T:Midsomer Norton, CMD
T:Midsomer Norton, CMD
T:Charles William Pearce, 1889
T:Public Domain Courtesy of the Cyber Hymnal™
C:Charles William Pearce, 1889
Z:Public Domain
Z:Courtesy of the Cyber Hymnal™
%%score ( 1 2 ) ( 3 4 )
L:1/8
Q:1/4=110
M:none
K:Eb
V:1 treble 
V:2 treble 
V:3 bass 
V:4 bass 
V:1
 [EG]2 | [FB]3 [FB] [Ee]2 [Ec]2 | [EB]2 [DG]2 E2 [B,F]2 | [B,G]2 B2 [Cc]2 [Dc]2 | [EB]6 [EB]2 | %5
 [FB]2 [Ge]2 [^Fd]2 [=Ac]2 | [GB]2 [^F=A]2 G2 [DA]2 | [DB]2 [^Fd]2 d3 z c | B6 [EB]2 | %9
 [EA]2 [DF]2 [EG]2 [Ae]2 | [A_d]2 [GB]2 [Ac]2 [Ac]2 | [Gc]3 [G=e] [Fe]2 [Fd]2 | [=Ec]6 [EG]2 | %13
 [FA]2 [Fc]2 [FB]2 [EB]2 | [Ec]2 [Fe]2 [Fd]2 [Fd]2 | [Ee]3 [EG] [EG]2 [DF]2 | E6 |] %17
V:2
 x2 | x8 | x4 E2 x2 | x2 (ED) x4 | x8 | x8 | x4 G2 x2 | x4 G2 =A2 x | B6 x2 | x8 | x8 | x8 | x8 | %13
 x8 | x8 | x8 | E6 |] %17
V:3
 [E,B,]2 | [D,B,]3 [D,F,] [C,G,]2 (A,G,) | [B,,F,]2 (B,A,) [C,G,]2 [D,F,]2 | %3
 E,2 [G,,E,]2 [A,,E,]2 [A,,F,]2 | [E,G,]6 [E,G,]2 | [D,F,]2 (CB,) [D,=A,]2 [^F,D]2 | %6
 [G,D]2 [CD]2 [B,D]2 [^F,C]2 | [G,B,]2 [D,B,]2 [E,B,]2 [F,E]2 x | [B,D]6 [G,B,]2 | %9
 [F,C]2 [B,,B,]2 [E,B,]2 [CE]2 | [B,F]2 [E,E]2 [A,E]2 [F,F]2 | [G,=E]3 [G,C] [G,=A,]2 [G,=B,]2 | %12
 [C,C]6 [C,C]2 | [F,C]2 [E,A,]2 [D,A,]2 [E,G,]2 | [A,,F,]2 [=A,,C]2 [B,,B,]2 [=B,,G,]2 | %15
 [C,G,]3 [B,,B,] [A,,C]2 [B,,A,]2 | [E,G,]6 |] %17
V:4
 x2 | x6 A,,2 | x2 B,,2 x4 | E,2 x6 | x8 | x2 C,2 x4 | x8 | x9 | x8 | x8 | x8 | x8 | x8 | x8 | x8 | %15
 x8 | x6 |] %17

